images/logotypes/logo_4.svg

<svg width="233" height="71" viewBox="0 0 233 71" fill="none" xmlns="http://www.w3.org/2000/svg">
<rect x="0.635742" y="0.411865" width="231.861" height="70" rx="35" fill="white"/>
<path d="M40.6357 52.5118H74.8358V18.3118H40.6357V52.5118ZM68.2531 32.1211H61.0264V24.8944H68.2531V32.1211ZM47.2171 24.8944H54.4478V38.7024H68.2531V45.9291H47.2171V24.8944ZM97.1064 18.3118C93.7243 18.3118 90.4182 19.3147 87.6062 21.1936C84.794 23.0726 82.6023 25.7433 81.308 28.8679C80.0138 31.9926 79.6752 35.4307 80.335 38.7478C80.9948 42.0648 82.6234 45.1118 85.0148 47.5032C87.4063 49.8948 90.4532 51.5234 93.7703 52.1832C97.0875 52.843 100.526 52.5044 103.65 51.2102C106.775 49.9159 109.446 47.7242 111.325 44.912C113.204 42.0999 114.206 38.7938 114.206 35.4118C114.201 30.8782 112.398 26.5318 109.192 23.3261C105.986 20.1204 101.64 18.3171 97.1064 18.3118ZM97.1064 45.9291C95.0263 45.9291 92.9928 45.3123 91.2632 44.1566C89.5338 43.001 88.1856 41.3584 87.3896 39.4366C86.5936 37.5148 86.3854 35.4002 86.7911 33.3599C87.197 31.3198 88.1987 29.4458 89.6695 27.9749C91.1404 26.504 93.0144 25.5023 95.0546 25.0965C97.0947 24.6907 99.2094 24.899 101.131 25.695C103.053 26.491 104.696 27.8391 105.851 29.5687C107.007 31.2982 107.624 33.3316 107.624 35.4118C107.62 38.1999 106.51 40.8726 104.539 42.844C102.567 44.8155 99.8944 45.9248 97.1064 45.9291ZM175.398 18.3118C172.016 18.3115 168.71 19.3142 165.898 21.193C163.086 23.0718 160.894 25.7424 159.599 28.867C158.305 31.9915 157.966 35.4299 158.626 38.747C159.285 42.0642 160.914 45.1112 163.305 47.5028C165.696 49.8944 168.743 51.5232 172.061 52.1831C175.377 52.843 178.816 52.5044 181.941 51.2103C185.065 49.916 187.736 47.7243 189.614 44.9122C191.494 42.1 192.497 38.7939 192.497 35.4118C192.492 30.8784 190.689 26.5322 187.484 23.3266C184.278 20.1209 179.932 18.3174 175.398 18.3118ZM175.398 45.9291C173.318 45.9294 171.285 45.3127 169.555 44.1572C167.825 43.0018 166.477 41.3592 165.681 39.4375C164.884 37.5158 164.676 35.401 165.082 33.3607C165.487 31.3206 166.489 29.4464 167.96 27.9754C169.431 26.5044 171.305 25.5025 173.345 25.0966C175.385 24.6907 177.5 24.8989 179.421 25.6949C181.344 26.4909 182.986 27.8389 184.142 29.5686C185.297 31.2982 185.914 33.3316 185.914 35.4118C185.91 38.1996 184.801 40.872 182.829 42.8435C180.858 44.815 178.186 45.9246 175.398 45.9291ZM136.252 18.3118C132.87 18.3118 129.564 19.3147 126.752 21.1936C123.939 23.0726 121.748 25.7433 120.453 28.8679C119.159 31.9926 118.821 35.4307 119.48 38.7478C120.14 42.0648 121.769 45.1118 124.16 47.5032C126.552 49.8948 129.599 51.5234 132.916 52.1832C136.233 52.843 139.671 52.5044 142.796 51.2102C145.92 49.9159 148.591 47.7242 150.47 44.912C152.349 42.0999 153.352 38.7938 153.352 35.4118C153.346 30.8782 151.543 26.5318 148.337 23.3261C145.132 20.1204 140.785 18.3171 136.252 18.3118ZM136.252 45.9291C134.314 45.93 132.413 45.3955 130.76 44.3844C129.106 43.3734 127.764 41.9252 126.882 40.1996C126 38.474 125.612 36.5382 125.76 34.6059C125.909 32.6735 126.588 30.8198 127.724 29.2492C128.859 27.6788 130.407 26.4526 132.195 25.706C133.984 24.9595 135.944 24.7217 137.859 25.0188C139.774 25.3159 141.57 26.1363 143.048 27.3897C144.526 28.643 145.629 30.2804 146.236 32.1211H136.252V38.7024H146.236C145.541 40.8028 144.203 42.6314 142.411 43.9284C140.619 45.2256 138.464 45.9255 136.252 45.9291Z" fill="#252525"/>
</svg>

<svg width="233" height="71" fill="none" xmlns="http://www.w3.org/2000/svg"><rect x=".636" y=".412" width="231.861" height="70" rx="35" fill="#fff"/><path d="M40.636 52.512h34.2v-34.2h-34.2v34.2Zm27.617-20.39h-7.227v-7.228h7.227v7.227Zm-21.036-7.228h7.23v13.808h13.806v7.227H47.217V24.894Zm49.89-6.582a17.1 17.1 0 1 0 17.099 17.1 17.117 17.117 0 0 0-17.1-17.1Zm0 27.617a10.517 10.517 0 1 1 10.517-10.517 10.534 10.534 0 0 1-10.518 10.517Zm78.291-27.617a17.097 17.097 0 0 0-16.772 20.435 17.097 17.097 0 0 0 23.315 12.463 17.095 17.095 0 0 0 7.673-6.298 17.094 17.094 0 0 0 2.883-9.5 17.12 17.12 0 0 0-17.099-17.1Zm0 27.617a10.517 10.517 0 1 1 10.516-10.517 10.531 10.531 0 0 1-10.516 10.517Zm-39.146-27.617a17.1 17.1 0 1 0 17.1 17.1 17.122 17.122 0 0 0-17.1-17.1Zm0 27.617a10.516 10.516 0 1 1 9.984-13.808h-9.984v6.581h9.984a10.537 10.537 0 0 1-9.984 7.227Z" fill="#252525"/></svg>
